img/icons/repeat.svg

<svg width="24" height="24" viewBox="-4 -4 24 24" fill="none" xmlns="http://www.w3.org/2000/svg">
<path fill-rule="evenodd" clip-rule="evenodd" d="M3.3315 4H6.3562V5.6H0.794526V0H2.38358V2.61628C3.75422 0.946009 5.71722 0 7.94526 0C12.3333 0 15.8905 3.58172 15.8905 8C15.8905 12.4183 12.3333 16 7.94526 16C3.55721 16 0 12.4183 0 8H1.58905C1.58905 11.5346 4.43482 14.4 7.94526 14.4C11.4557 14.4 14.3015 11.5346 14.3015 8C14.3015 4.46538 11.4557 1.6 7.94526 1.6C6.04346 1.6 4.41243 2.46296 3.3315 4Z" fill="#0095BF"/>
</svg>

<svg xmlns="http://www.w3.org/2000/svg" fill="none" viewBox="-4 -4 24 24"><path fill="#0095bf" fill-rule="evenodd" d="M3.332 4h3.024v1.6H.795V0h1.589v2.616C3.754.946 5.717 0 7.945 0c4.388 0 7.945 3.582 7.945 8s-3.557 8-7.945 8S0 12.418 0 8h1.589c0 3.535 2.846 6.4 6.356 6.4s6.357-2.865 6.357-6.4-2.846-6.4-6.357-6.4c-1.902 0-3.533.863-4.613 2.4" clip-rule="evenodd"/></svg>
